X:1
T:Title
%%score ( 1 2 3 ) { ( 4 6 7 ) | ( 5 8 ) }
L:1/8
Q:1/4=118
M:4/4
K:Eb
V:1 treble nm="Grand Piano, Staff"
V:2 treble 
V:3 treble 
V:4 bass nm="Choir Pad, Easter-Tide, 67.67 ref."
V:6 bass 
V:7 bass 
V:5 bass 
V:8 bass 
V:1
 z4 F2 z2 | [EA]2 B2- [DB-][CB-] [DB]2 | [EB]2 c2- c/ z/ B [CA]2 | [Cc]2 B2- BA [EG]2 | .F2 F4 z2 | %5
 z4 F2 z2 | [EA]2 B2- [DB-][CB-] [DB]2 | [EB]2 c2- c/ z/ B [CA]2 | [Cc]2 B2- BA [EG]2 | .F2 F4 z2 | %10
 [B,E]2 [B,F]2 [B,G]2 [CA]2 | G2 z2 z4 | [DB]2 [Cc]2 [EB]2 B2 | B2 [DB]6 | z4 A2 G2 | [FG]2 [CF]6 | %16
 z4 E2 z2 | [B,G]2 [CA]4 [B,F]2 | [B,F]2 [DB]4 [CG]2 | [CG]2 [Ec]4 B-[EB] | [DB]2 e2- ed c2 | %21
 BA G2 FE F2- | [DF]2 [B,E]6- | [B,E]2 z2 z4 |] %24
V:2
 B,2 [B,E]2 CD [EG]2 | z2 E2 z4 | z2 E2 E2 z2 | z2 F4 z2 | B,-[B,E] C2 D2 [B,E]2 | %5
 B,2 [B,E]2 CD [EG]2 | z2 E2 z4 | z2 E2 E2 z2 | z2 F4 z2 | B,-[B,E] C2 D2 [B,E]2 | x8 | %11
 B,C [DF]2- [DF][EG] [EA]2 | z4 z2 C2- | C2 z2 z4 | [B,B]2 A2 z DFD | x8 | [B,E]2 D2 z B, [B,F]2 | %17
 x8 | x8 | z4 z2 .F2 | z2 E6 | F2 B,4 C2 | x8 | x8 |] %24
V:3
 x8 | x8 | x8 | x8 | x8 | x8 | x8 | x8 | x8 | x8 | x8 | x8 | x8 | x8 | z2 .C4 z2 | x8 | %16
 z2 .B,4 z2 | x8 | x8 | x8 | x8 | x8 | x8 | x8 |] %24
V:4
 G,2 B,2 A,2 G,2 | E,2 F,6 | G,2 A,2 G,2 A,2 | z4 B,4 | z8 | G,2 B,2 A,2 G,2 | E,2 F,6 | %7
 G,2 A,2 G,2 A,2 | z4 B,4 | z8 | G,2 F,2 E,2 E,F, | G,A, B,2- B,B,A,E, | F,G, A,2 G,2 F,2- | %13
 F,2 F,6 | G,2 G,2 z B,, A,2- | A,2 A,6 | G,2 F,2 E,2 D,2 | E,2 E,2 F,E, D,2 | F,2 F,2 G,F, E,2 | %19
 G,2 G,2 A,G, F,2 | B,A, B,2 G,2 A,G, | F,2 G,2 B,2 A,G, | F,2 G,6- | G,2 z2 z4 |] %24
V:5
 E,2 G,2 F,2 E,D, | C,2 B,,6 | E,2 z2 E,2 F,2 | F,E, D,4 z2 | z2 A,,2 B,,2 E,2 | E,2 G,2 F,2 E,D, | %6
 C,2 B,,6 | E,2 z2 E,2 F,2 | F,E, D,4 z2 | z2 A,,2 B,,2 E,2 | E,2 D,2 z2 C,D, | %11
 E,2 B,,2- B,,E, C,2 | B,,2 A,,2 E,2 z2 | z2 B,,6 | G,,2 .A,,4 C,2 | z B, F,,6 | %16
 G,,A,, B,,2 C,2 B,,2 | z2 A,,4 B,,C, | D,B,, B,,4 C,D, | E,D, C,4 D,2 | z2 G,F, E,2 z2 | %21
 D,2 E,2 G,,2 A,,2 | B,,2 E,6- | E,2 z2 z4 |] %24
V:6
 x8 | x8 | x8 | A,G, F,2 z4 | G,2 A,G, F,2 G,2 | x8 | x8 | x8 | A,G, F,2 z4 | G,2 A,G, F,2 G,2 | %10
 x8 | x8 | x8 | x8 | z4 F,2 z2 | x8 | x8 | x8 | x8 | x8 | x8 | x8 | x8 | x8 |] %24
V:7
 x8 | x8 | x8 | z4 z2 E,2- | E,2 z2 z4 | x8 | x8 | x8 | z4 z2 E,2- | E,2 z2 z4 | x8 | x8 | x8 | %13
 x8 | x8 | x8 | x8 | x8 | x8 | x8 | x8 | x8 | x8 | x8 |] %24
V:8
 x8 | x8 | x8 | x8 | x8 | x8 | x8 | x8 | x8 | x8 | x8 | x8 | x8 | x8 | x8 | C,2 z2 z4 | x8 | x8 | %18
 x8 | x8 | x8 | x8 | x8 | x8 |] %24

